images/50222960.svg

<?xml version="1.0" encoding="UTF-8"?>
<svg xmlns="http://www.w3.org/2000/svg" xmlns:xlink="http://www.w3.org/1999/xlink" width="300pt" height="300pt" viewBox="0 0 300 300" version="1.1">
<defs>
<g>
<symbol overflow="visible" id="glyph0-0">
<path style="stroke:none;" d="M 0.546875 1.9375 L 0.546875 -7.75 L 6.046875 -7.75 L 6.046875 1.9375 Z M 1.171875 1.328125 L 5.4375 1.328125 L 5.4375 -7.140625 L 1.171875 -7.140625 Z M 1.171875 1.328125 "/>
</symbol>
<symbol overflow="visible" id="glyph0-1">
<path style="stroke:none;" d="M 1.078125 -8.015625 L 5.6875 -8.015625 L 5.6875 -7.109375 L 2.171875 -7.109375 L 2.171875 -4.75 L 5.34375 -4.75 L 5.34375 -3.828125 L 2.171875 -3.828125 L 2.171875 0 L 1.078125 0 Z M 1.078125 -8.015625 "/>
</symbol>
<symbol overflow="visible" id="glyph0-2">
<path style="stroke:none;" d="M 1.078125 -8.015625 L 2.546875 -8.015625 L 6.09375 -1.3125 L 6.09375 -8.015625 L 7.15625 -8.015625 L 7.15625 0 L 5.6875 0 L 2.125 -6.703125 L 2.125 0 L 1.078125 0 Z M 1.078125 -8.015625 "/>
</symbol>
<symbol overflow="visible" id="glyph0-3">
<path style="stroke:none;" d="M 4.328125 -7.28125 C 3.546875 -7.28125 2.921875 -6.984375 2.453125 -6.390625 C 1.992188 -5.804688 1.765625 -5.007812 1.765625 -4 C 1.765625 -2.988281 1.992188 -2.1875 2.453125 -1.59375 C 2.921875 -1.007812 3.546875 -0.71875 4.328125 -0.71875 C 5.117188 -0.71875 5.742188 -1.007812 6.203125 -1.59375 C 6.660156 -2.1875 6.890625 -2.988281 6.890625 -4 C 6.890625 -5.007812 6.660156 -5.804688 6.203125 -6.390625 C 5.742188 -6.984375 5.117188 -7.28125 4.328125 -7.28125 Z M 4.328125 -8.171875 C 5.453125 -8.171875 6.351562 -7.789062 7.03125 -7.03125 C 7.707031 -6.28125 8.046875 -5.269531 8.046875 -4 C 8.046875 -2.738281 7.707031 -1.726562 7.03125 -0.96875 C 6.351562 -0.21875 5.453125 0.15625 4.328125 0.15625 C 3.203125 0.15625 2.300781 -0.21875 1.625 -0.96875 C 0.957031 -1.71875 0.625 -2.726562 0.625 -4 C 0.625 -5.269531 0.957031 -6.28125 1.625 -7.03125 C 2.300781 -7.789062 3.203125 -8.171875 4.328125 -8.171875 Z M 4.328125 -8.171875 "/>
</symbol>
</g>
</defs>
<g id="surface26877">
<rect x="0" y="0" width="300" height="300" style="fill:rgb(100%,100%,100%);fill-opacity:1;stroke:none;"/>
<path style="fill:none;stroke-width:1.2;stroke-linecap:butt;stroke-linejoin:miter;stroke:rgb(20%,80%,80%);stroke-opacity:1;stroke-miterlimit:10;" d="M 35.25 146.042969 L 42.558594 157.863281 "/>
<path style="fill:none;stroke-width:1.2;stroke-linecap:butt;stroke-linejoin:miter;stroke:rgb(0%,0%,0%);stroke-opacity:1;stroke-miterlimit:10;" d="M 42.558594 157.863281 L 49.863281 169.683594 "/>
<path style=" stroke:none;fill-rule:nonzero;fill:rgb(100%,100%,100%);fill-opacity:1;" d="M 28.25 139.542969 L 35.25 139.542969 L 35.25 152.542969 L 28.25 152.542969 Z M 28.25 139.542969 "/>
<g style="fill:rgb(20%,80%,80%);fill-opacity:1;">
  <use xlink:href="#glyph0-1" x="28.25" y="149.444336"/>
</g>
<path style="fill:none;stroke-width:1.2;stroke-linecap:butt;stroke-linejoin:miter;stroke:rgb(0%,0%,0%);stroke-opacity:1;stroke-miterlimit:10;" d="M 49.863281 169.683594 L 36.703125 194.15625 "/>
<path style="fill:none;stroke-width:1.2;stroke-linecap:butt;stroke-linejoin:miter;stroke:rgb(0%,0%,0%);stroke-opacity:1;stroke-miterlimit:10;" d="M 54.308594 175.226562 L 43.777344 194.808594 "/>
<path style="fill:none;stroke-width:1.2;stroke-linecap:butt;stroke-linejoin:miter;stroke:rgb(0%,0%,0%);stroke-opacity:1;stroke-miterlimit:10;" d="M 77.644531 168.84375 L 49.863281 169.683594 "/>
<path style="fill:none;stroke-width:1.2;stroke-linecap:butt;stroke-linejoin:miter;stroke:rgb(0%,0%,0%);stroke-opacity:1;stroke-miterlimit:10;" d="M 36.703125 194.15625 L 51.316406 217.792969 "/>
<path style="fill:none;stroke-width:1.2;stroke-linecap:butt;stroke-linejoin:miter;stroke:rgb(0%,0%,0%);stroke-opacity:1;stroke-miterlimit:10;" d="M 51.316406 217.792969 L 44.734375 230.03125 "/>
<path style="fill:none;stroke-width:1.2;stroke-linecap:butt;stroke-linejoin:miter;stroke:rgb(20%,80%,80%);stroke-opacity:1;stroke-miterlimit:10;" d="M 44.734375 230.03125 L 38.152344 242.269531 "/>
<path style="fill:none;stroke-width:1.2;stroke-linecap:butt;stroke-linejoin:miter;stroke:rgb(0%,0%,0%);stroke-opacity:1;stroke-miterlimit:10;" d="M 51.316406 217.792969 L 79.09375 216.957031 "/>
<path style="fill:none;stroke-width:1.2;stroke-linecap:butt;stroke-linejoin:miter;stroke:rgb(0%,0%,0%);stroke-opacity:1;stroke-miterlimit:10;" d="M 53.898438 211.175781 L 76.121094 210.503906 "/>
<path style=" stroke:none;fill-rule:nonzero;fill:rgb(100%,100%,100%);fill-opacity:1;" d="M 31.152344 235.769531 L 38.152344 235.769531 L 38.152344 248.769531 L 31.152344 248.769531 Z M 31.152344 235.769531 "/>
<g style="fill:rgb(20%,80%,80%);fill-opacity:1;">
  <use xlink:href="#glyph0-1" x="31.152344" y="245.670898"/>
</g>
<path style="fill:none;stroke-width:1.2;stroke-linecap:butt;stroke-linejoin:miter;stroke:rgb(0%,0%,0%);stroke-opacity:1;stroke-miterlimit:10;" d="M 79.09375 216.957031 L 92.257812 192.480469 "/>
<path style="fill:none;stroke-width:1.2;stroke-linecap:butt;stroke-linejoin:miter;stroke:rgb(0%,0%,0%);stroke-opacity:1;stroke-miterlimit:10;" d="M 92.257812 192.480469 L 77.644531 168.84375 "/>
<path style="fill:none;stroke-width:1.2;stroke-linecap:butt;stroke-linejoin:miter;stroke:rgb(0%,0%,0%);stroke-opacity:1;stroke-miterlimit:10;" d="M 85.234375 193.554688 L 73.542969 174.644531 "/>
<path style="fill:none;stroke-width:1.2;stroke-linecap:butt;stroke-linejoin:miter;stroke:rgb(0%,0%,0%);stroke-opacity:1;stroke-miterlimit:10;" d="M 77.644531 168.84375 L 90.804688 144.367188 "/>
<path style="fill:none;stroke-width:1.2;stroke-linecap:butt;stroke-linejoin:miter;stroke:rgb(0%,0%,0%);stroke-opacity:1;stroke-miterlimit:10;" d="M 90.804688 144.367188 L 84.773438 131.851562 "/>
<path style="fill:none;stroke-width:1.2;stroke-linecap:butt;stroke-linejoin:miter;stroke:rgb(0%,0%,100%);stroke-opacity:1;stroke-miterlimit:10;" d="M 84.773438 131.851562 L 78.742188 119.332031 "/>
<path style="fill:none;stroke-width:1.2;stroke-linecap:butt;stroke-linejoin:miter;stroke:rgb(0%,0%,0%);stroke-opacity:1;stroke-miterlimit:10;" d="M 118.34375 140.632812 L 90.804688 144.367188 "/>
<path style="fill:none;stroke-width:1.2;stroke-linecap:butt;stroke-linejoin:miter;stroke:rgb(0%,0%,0%);stroke-opacity:1;stroke-miterlimit:10;" d="M 114.710938 134.523438 L 92.679688 137.515625 "/>
<path style="fill:none;stroke-width:1.2;stroke-linecap:butt;stroke-linejoin:miter;stroke:rgb(0%,0%,100%);stroke-opacity:1;stroke-miterlimit:10;" d="M 78.742188 119.332031 L 88.78125 109.726562 "/>
<path style="fill:none;stroke-width:1.2;stroke-linecap:butt;stroke-linejoin:miter;stroke:rgb(0%,0%,0%);stroke-opacity:1;stroke-miterlimit:10;" d="M 88.78125 109.726562 L 98.824219 100.121094 "/>
<path style="fill:none;stroke-width:1.2;stroke-linecap:butt;stroke-linejoin:miter;stroke:rgb(0%,0%,100%);stroke-opacity:1;stroke-miterlimit:10;" d="M 85.269531 122.136719 L 93.300781 114.453125 "/>
<path style="fill:none;stroke-width:1.2;stroke-linecap:butt;stroke-linejoin:miter;stroke:rgb(0%,0%,0%);stroke-opacity:1;stroke-miterlimit:10;" d="M 93.300781 114.453125 L 101.335938 106.769531 "/>
<path style=" stroke:none;fill-rule:nonzero;fill:rgb(100%,100%,100%);fill-opacity:1;" d="M 74.742188 112.832031 L 82.742188 112.832031 L 82.742188 125.832031 L 74.742188 125.832031 Z M 74.742188 112.832031 "/>
<g style="fill:rgb(0%,0%,100%);fill-opacity:1;">
  <use xlink:href="#glyph0-2" x="74.742188" y="122.733398"/>
</g>
<path style="fill:none;stroke-width:1.2;stroke-linecap:butt;stroke-linejoin:miter;stroke:rgb(0%,0%,0%);stroke-opacity:1;stroke-miterlimit:10;" d="M 98.824219 100.121094 L 111.0625 106.703125 "/>
<path style="fill:none;stroke-width:1.2;stroke-linecap:butt;stroke-linejoin:miter;stroke:rgb(0%,0%,100%);stroke-opacity:1;stroke-miterlimit:10;" d="M 111.0625 106.703125 L 123.300781 113.285156 "/>
<path style="fill:none;stroke-width:1.2;stroke-linecap:butt;stroke-linejoin:miter;stroke:rgb(0%,0%,0%);stroke-opacity:1;stroke-miterlimit:10;" d="M 97.984375 72.34375 L 98.824219 100.121094 "/>
<path style="fill:none;stroke-width:1.2;stroke-linecap:butt;stroke-linejoin:miter;stroke:rgb(0%,0%,100%);stroke-opacity:1;stroke-miterlimit:10;" d="M 123.300781 113.285156 L 135.117188 105.976562 "/>
<path style="fill:none;stroke-width:1.2;stroke-linecap:butt;stroke-linejoin:miter;stroke:rgb(0%,0%,0%);stroke-opacity:1;stroke-miterlimit:10;" d="M 135.117188 105.976562 L 146.9375 98.671875 "/>
<path style="fill:none;stroke-width:1.2;stroke-linecap:butt;stroke-linejoin:miter;stroke:rgb(0%,0%,100%);stroke-opacity:1;stroke-miterlimit:10;" d="M 123.300781 113.285156 L 120.820312 126.957031 "/>
<path style="fill:none;stroke-width:1.2;stroke-linecap:butt;stroke-linejoin:miter;stroke:rgb(0%,0%,0%);stroke-opacity:1;stroke-miterlimit:10;" d="M 120.820312 126.957031 L 118.34375 140.632812 "/>
<path style=" stroke:none;fill-rule:nonzero;fill:rgb(100%,100%,100%);fill-opacity:1;" d="M 119.300781 106.785156 L 127.300781 106.785156 L 127.300781 119.785156 L 119.300781 119.785156 Z M 119.300781 106.785156 "/>
<g style="fill:rgb(0%,0%,100%);fill-opacity:1;">
  <use xlink:href="#glyph0-2" x="119.300781" y="116.686523"/>
</g>
<path style="fill:none;stroke-width:1.2;stroke-linecap:butt;stroke-linejoin:miter;stroke:rgb(0%,0%,0%);stroke-opacity:1;stroke-miterlimit:10;" d="M 146.9375 98.671875 L 146.097656 70.894531 "/>
<path style="fill:none;stroke-width:1.2;stroke-linecap:butt;stroke-linejoin:miter;stroke:rgb(0%,0%,0%);stroke-opacity:1;stroke-miterlimit:10;" d="M 140.316406 96.089844 L 139.644531 73.867188 "/>
<path style="fill:none;stroke-width:1.2;stroke-linecap:butt;stroke-linejoin:miter;stroke:rgb(0%,0%,0%);stroke-opacity:1;stroke-miterlimit:10;" d="M 146.097656 70.894531 L 121.621094 57.730469 "/>
<path style="fill:none;stroke-width:1.2;stroke-linecap:butt;stroke-linejoin:miter;stroke:rgb(0%,0%,0%);stroke-opacity:1;stroke-miterlimit:10;" d="M 121.621094 57.730469 L 97.984375 72.34375 "/>
<path style="fill:none;stroke-width:1.2;stroke-linecap:butt;stroke-linejoin:miter;stroke:rgb(0%,0%,0%);stroke-opacity:1;stroke-miterlimit:10;" d="M 122.699219 64.753906 L 103.789062 76.445312 "/>
<path style="fill:none;stroke-width:1.2;stroke-linecap:butt;stroke-linejoin:miter;stroke:rgb(0%,0%,0%);stroke-opacity:1;stroke-miterlimit:10;" d="M 118.34375 140.632812 L 137.554688 160.714844 "/>
<path style="fill:none;stroke-width:1.2;stroke-linecap:butt;stroke-linejoin:miter;stroke:rgb(0%,0%,0%);stroke-opacity:1;stroke-miterlimit:10;" d="M 137.554688 160.714844 L 151.050781 157.414062 "/>
<path style="fill:none;stroke-width:1.2;stroke-linecap:butt;stroke-linejoin:miter;stroke:rgb(0%,0%,100%);stroke-opacity:1;stroke-miterlimit:10;" d="M 151.050781 157.414062 L 164.550781 154.117188 "/>
<path style="fill:none;stroke-width:1.2;stroke-linecap:butt;stroke-linejoin:miter;stroke:rgb(0%,0%,0%);stroke-opacity:1;stroke-miterlimit:10;" d="M 141.804688 166.40625 L 152.605469 163.765625 "/>
<path style="fill:none;stroke-width:1.2;stroke-linecap:butt;stroke-linejoin:miter;stroke:rgb(0%,0%,100%);stroke-opacity:1;stroke-miterlimit:10;" d="M 152.605469 163.765625 L 163.402344 161.128906 "/>
<path style="fill:none;stroke-width:1.2;stroke-linecap:butt;stroke-linejoin:miter;stroke:rgb(0%,0%,0%);stroke-opacity:1;stroke-miterlimit:10;" d="M 129.765625 187.390625 L 137.554688 160.714844 "/>
<path style="fill:none;stroke-width:1.2;stroke-linecap:butt;stroke-linejoin:miter;stroke:rgb(0%,0%,100%);stroke-opacity:1;stroke-miterlimit:10;" d="M 164.550781 154.117188 L 183.761719 174.199219 "/>
<path style=" stroke:none;fill-rule:nonzero;fill:rgb(100%,100%,100%);fill-opacity:1;" d="M 160.550781 147.617188 L 168.550781 147.617188 L 168.550781 160.617188 L 160.550781 160.617188 Z M 160.550781 147.617188 "/>
<g style="fill:rgb(0%,0%,100%);fill-opacity:1;">
  <use xlink:href="#glyph0-2" x="160.550781" y="157.518555"/>
</g>
<path style="fill:none;stroke-width:1.2;stroke-linecap:butt;stroke-linejoin:miter;stroke:rgb(0%,0%,100%);stroke-opacity:1;stroke-miterlimit:10;" d="M 183.761719 174.199219 L 197.257812 170.902344 "/>
<path style="fill:none;stroke-width:1.2;stroke-linecap:butt;stroke-linejoin:miter;stroke:rgb(0%,0%,0%);stroke-opacity:1;stroke-miterlimit:10;" d="M 197.257812 170.902344 L 210.757812 167.605469 "/>
<path style="fill:none;stroke-width:1.2;stroke-linecap:butt;stroke-linejoin:miter;stroke:rgb(0%,0%,100%);stroke-opacity:1;stroke-miterlimit:10;" d="M 183.761719 174.199219 L 179.867188 187.539062 "/>
<path style="fill:none;stroke-width:1.2;stroke-linecap:butt;stroke-linejoin:miter;stroke:rgb(0%,0%,0%);stroke-opacity:1;stroke-miterlimit:10;" d="M 179.867188 187.539062 L 175.972656 200.878906 "/>
<path style=" stroke:none;fill-rule:nonzero;fill:rgb(100%,100%,100%);fill-opacity:1;" d="M 179.761719 167.699219 L 187.761719 167.699219 L 187.761719 180.699219 L 179.761719 180.699219 Z M 179.761719 167.699219 "/>
<g style="fill:rgb(0%,0%,100%);fill-opacity:1;">
  <use xlink:href="#glyph0-2" x="179.761719" y="177.600586"/>
</g>
<path style="fill:none;stroke-width:1.2;stroke-linecap:butt;stroke-linejoin:miter;stroke:rgb(0%,0%,0%);stroke-opacity:1;stroke-miterlimit:10;" d="M 210.757812 167.605469 L 218.542969 140.925781 "/>
<path style="fill:none;stroke-width:1.2;stroke-linecap:butt;stroke-linejoin:miter;stroke:rgb(0%,0%,0%);stroke-opacity:1;stroke-miterlimit:10;" d="M 217.8125 166.769531 L 224.042969 145.425781 "/>
<path style="fill:none;stroke-width:1.2;stroke-linecap:butt;stroke-linejoin:miter;stroke:rgb(0%,0%,0%);stroke-opacity:1;stroke-miterlimit:10;" d="M 229.96875 187.6875 L 210.757812 167.605469 "/>
<path style="fill:none;stroke-width:1.2;stroke-linecap:butt;stroke-linejoin:miter;stroke:rgb(0%,0%,0%);stroke-opacity:1;stroke-miterlimit:10;" d="M 218.542969 140.925781 L 245.539062 134.332031 "/>
<path style="fill:none;stroke-width:1.2;stroke-linecap:butt;stroke-linejoin:miter;stroke:rgb(0%,0%,0%);stroke-opacity:1;stroke-miterlimit:10;" d="M 245.539062 134.332031 L 264.75 154.414062 "/>
<path style="fill:none;stroke-width:1.2;stroke-linecap:butt;stroke-linejoin:miter;stroke:rgb(0%,0%,0%);stroke-opacity:1;stroke-miterlimit:10;" d="M 242.734375 140.859375 L 258.105469 156.925781 "/>
<path style="fill:none;stroke-width:1.2;stroke-linecap:butt;stroke-linejoin:miter;stroke:rgb(0%,0%,0%);stroke-opacity:1;stroke-miterlimit:10;" d="M 264.75 154.414062 L 256.964844 181.089844 "/>
<path style="fill:none;stroke-width:1.2;stroke-linecap:butt;stroke-linejoin:miter;stroke:rgb(0%,0%,0%);stroke-opacity:1;stroke-miterlimit:10;" d="M 256.964844 181.089844 L 229.96875 187.6875 "/>
<path style="fill:none;stroke-width:1.2;stroke-linecap:butt;stroke-linejoin:miter;stroke:rgb(0%,0%,0%);stroke-opacity:1;stroke-miterlimit:10;" d="M 252.710938 175.398438 L 231.113281 180.675781 "/>
<path style="fill:none;stroke-width:1.2;stroke-linecap:butt;stroke-linejoin:miter;stroke:rgb(0%,0%,0%);stroke-opacity:1;stroke-miterlimit:10;" d="M 229.96875 187.6875 L 222.179688 214.363281 "/>
<path style="fill:none;stroke-width:1.2;stroke-linecap:butt;stroke-linejoin:miter;stroke:rgb(0%,0%,0%);stroke-opacity:1;stroke-miterlimit:10;" d="M 173.609375 203.136719 L 183.214844 213.179688 "/>
<path style="fill:none;stroke-width:1.2;stroke-linecap:butt;stroke-linejoin:miter;stroke:rgb(100%,0%,0%);stroke-opacity:1;stroke-miterlimit:10;" d="M 183.214844 213.179688 L 192.820312 223.21875 "/>
<path style="fill:none;stroke-width:1.2;stroke-linecap:butt;stroke-linejoin:miter;stroke:rgb(0%,0%,0%);stroke-opacity:1;stroke-miterlimit:10;" d="M 178.335938 198.617188 L 187.941406 208.65625 "/>
<path style="fill:none;stroke-width:1.2;stroke-linecap:butt;stroke-linejoin:miter;stroke:rgb(100%,0%,0%);stroke-opacity:1;stroke-miterlimit:10;" d="M 187.941406 208.65625 L 197.546875 218.699219 "/>
<path style="fill:none;stroke-width:1.2;stroke-linecap:butt;stroke-linejoin:miter;stroke:rgb(0%,0%,0%);stroke-opacity:1;stroke-miterlimit:10;" d="M 175.972656 200.878906 L 148.976562 207.472656 "/>
<path style=" stroke:none;fill-rule:nonzero;fill:rgb(100%,100%,100%);fill-opacity:1;" d="M 191.183594 214.460938 L 200.183594 214.460938 L 200.183594 227.460938 L 191.183594 227.460938 Z M 191.183594 214.460938 "/>
<g style="fill:rgb(100%,0%,0%);fill-opacity:1;">
  <use xlink:href="#glyph0-3" x="191.183594" y="224.362305"/>
</g>
<path style="fill:none;stroke-width:1.2;stroke-linecap:butt;stroke-linejoin:miter;stroke:rgb(0%,0%,0%);stroke-opacity:1;stroke-miterlimit:10;" d="M 148.976562 207.472656 L 129.765625 187.390625 "/>
<path style="fill:none;stroke-width:1.2;stroke-linecap:butt;stroke-linejoin:miter;stroke:rgb(0%,0%,0%);stroke-opacity:1;stroke-miterlimit:10;" d="M 151.78125 200.945312 L 136.414062 184.878906 "/>
</g>
</svg>

<svg xmlns="http://www.w3.org/2000/svg" xmlns:xlink="http://www.w3.org/1999/xlink" width="300pt" height="300pt" viewBox="0 0 300 300"><defs><symbol overflow="visible"><path d="M.547 1.938V-7.75h5.5v9.688zm.625-.61h4.266v-8.47H1.171zm0 0"/></symbol><symbol overflow="visible" id="a"><path d="M1.078-8.016h4.61v.907H2.171v2.36h3.172v.922H2.172V0H1.078zm0 0"/></symbol><symbol overflow="visible" id="b"><path d="M1.078-8.016h1.47l3.546 6.704v-6.704h1.062V0H5.688L2.124-6.703V0H1.078zm0 0"/></symbol><symbol overflow="visible" id="c"><path d="M4.328-7.28c-.78 0-1.406.296-1.875.89-.46.585-.687 1.382-.687 2.39 0 1.012.226 1.813.687 2.406.47.586 1.094.875 1.875.875.79 0 1.414-.288 1.875-.874.457-.593.688-1.394.688-2.406 0-1.008-.23-1.805-.687-2.39-.46-.594-1.086-.89-1.875-.89zm0-.892c1.125 0 2.024.383 2.703 1.14C7.708-6.28 8.048-5.27 8.048-4c0 1.262-.34 2.273-1.016 3.03C6.353-.22 5.454.157 4.33.157S2.3-.22 1.625-.97c-.668-.75-1-1.757-1-3.03 0-1.27.332-2.28 1-3.03.676-.76 1.578-1.142 2.703-1.142zm0 0"/></symbol></defs><g><path fill="#fff" d="M0 0h300v300H0z"/><path d="M35.25 146.043l7.31 11.82" stroke-width="1.2" stroke="#3cc" stroke-miterlimit="10" fill="none"/><path d="M42.56 157.863l7.303 11.82" stroke-width="1.2" stroke="#000" stroke-miterlimit="10" fill="none"/><path d="M28.25 139.543h7v13h-7zm0 0" fill="#fff"/><use xlink:href="#a" x="28.25" y="149.444" fill="#3cc"/><path d="M49.863 169.684l-13.16 24.472M54.31 175.227L43.776 194.81M77.645 168.844l-27.782.84M36.703 194.156l14.613 23.637M51.316 217.793l-6.582 12.238" stroke-width="1.2" stroke="#000" stroke-miterlimit="10" fill="none"/><path d="M44.734 230.03l-6.582 12.24" stroke-width="1.2" stroke="#3cc" stroke-miterlimit="10" fill="none"/><path d="M51.316 217.793l27.778-.836M53.898 211.176l22.223-.672" stroke-width="1.2" stroke="#000" stroke-miterlimit="10" fill="none"/><path d="M31.152 235.77h7v13h-7zm0 0" fill="#fff"/><use xlink:href="#a" x="31.152" y="245.671" fill="#3cc"/><path d="M79.094 216.957l13.164-24.477M92.258 192.48l-14.613-23.636M85.234 193.555l-11.69-18.91M77.645 168.844l13.16-24.477M90.805 144.367l-6.032-12.515" stroke-width="1.2" stroke="#000" stroke-miterlimit="10" fill="none"/><path d="M84.773 131.852l-6.03-12.52" stroke-width="1.2" stroke="#00f" stroke-miterlimit="10" fill="none"/><path d="M118.344 140.633l-27.54 3.734M114.71 134.523l-22.03 2.993" stroke-width="1.2" stroke="#000" stroke-miterlimit="10" fill="none"/><path d="M78.742 119.332l10.04-9.605" stroke-width="1.2" stroke="#00f" stroke-miterlimit="10" fill="none"/><path d="M88.78 109.727l10.044-9.606" stroke-width="1.2" stroke="#000" stroke-miterlimit="10" fill="none"/><path d="M85.27 122.137l8.03-7.684" stroke-width="1.2" stroke="#00f" stroke-miterlimit="10" fill="none"/><path d="M93.3 114.453l8.036-7.683" stroke-width="1.2" stroke="#000" stroke-miterlimit="10" fill="none"/><path d="M74.742 112.832h8v13h-8zm0 0" fill="#fff"/><use xlink:href="#b" x="74.742" y="122.733" fill="#00f"/><path d="M98.824 100.12l12.24 6.583" stroke-width="1.2" stroke="#000" stroke-miterlimit="10" fill="none"/><path d="M111.063 106.703l12.238 6.582" stroke-width="1.2" stroke="#00f" stroke-miterlimit="10" fill="none"/><path d="M97.984 72.344l.84 27.777" stroke-width="1.2" stroke="#000" stroke-miterlimit="10" fill="none"/><path d="M123.3 113.285l11.817-7.308" stroke-width="1.2" stroke="#00f" stroke-miterlimit="10" fill="none"/><path d="M135.117 105.977l11.82-7.305" stroke-width="1.2" stroke="#000" stroke-miterlimit="10" fill="none"/><path d="M123.3 113.285l-2.48 13.672" stroke-width="1.2" stroke="#00f" stroke-miterlimit="10" fill="none"/><path d="M120.82 126.957l-2.476 13.676" stroke-width="1.2" stroke="#000" stroke-miterlimit="10" fill="none"/><path d="M119.3 106.785h8v13h-8zm0 0" fill="#fff"/><use xlink:href="#b" x="119.301" y="116.687" fill="#00f"/><path d="M146.938 98.672l-.84-27.777M140.316 96.09l-.67-22.223M146.098 70.895L121.62 57.73M121.62 57.73L97.985 72.344M122.7 64.754l-18.91 11.69M118.344 140.633l19.21 20.082M137.555 160.715l13.496-3.3" stroke-width="1.2" stroke="#000" stroke-miterlimit="10" fill="none"/><path d="M151.05 157.414l13.5-3.297" stroke-width="1.2" stroke="#00f" stroke-miterlimit="10" fill="none"/><path d="M141.805 166.406l10.8-2.64" stroke-width="1.2" stroke="#000" stroke-miterlimit="10" fill="none"/><path d="M152.605 163.766l10.797-2.637" stroke-width="1.2" stroke="#00f" stroke-miterlimit="10" fill="none"/><path d="M129.766 187.39l7.79-26.675" stroke-width="1.2" stroke="#000" stroke-miterlimit="10" fill="none"/><path d="M164.55 154.117l19.212 20.082" stroke-width="1.2" stroke="#00f" stroke-miterlimit="10" fill="none"/><path d="M160.55 147.617h8v13h-8zm0 0" fill="#fff"/><use xlink:href="#b" x="160.551" y="157.519" fill="#00f"/><path d="M183.762 174.2l13.496-3.298" stroke-width="1.2" stroke="#00f" stroke-miterlimit="10" fill="none"/><path d="M197.258 170.902l13.5-3.297" stroke-width="1.2" stroke="#000" stroke-miterlimit="10" fill="none"/><path d="M183.762 174.2l-3.895 13.34" stroke-width="1.2" stroke="#00f" stroke-miterlimit="10" fill="none"/><path d="M179.867 187.54l-3.894 13.34" stroke-width="1.2" stroke="#000" stroke-miterlimit="10" fill="none"/><path d="M179.762 167.7h8v13h-8zm0 0" fill="#fff"/><use xlink:href="#b" x="179.762" y="177.601" fill="#00f"/><path d="M210.758 167.605l7.785-26.68M217.813 166.77l6.23-21.344M229.97 187.688l-19.212-20.083M218.543 140.926l26.996-6.594M245.54 134.332l19.21 20.082M242.734 140.86l15.37 16.066M264.75 154.414l-7.785 26.676M256.965 181.09l-26.996 6.597M252.71 175.398l-21.597 5.278M229.97 187.688l-7.79 26.675M173.61 203.137l9.605 10.043" stroke-width="1.2" stroke="#000" stroke-miterlimit="10" fill="none"/><path d="M183.215 213.18l9.605 10.04" stroke-width="1.2" stroke="#f00" stroke-miterlimit="10" fill="none"/><path d="M178.336 198.617l9.605 10.04" stroke-width="1.2" stroke="#000" stroke-miterlimit="10" fill="none"/><path d="M187.94 208.656l9.607 10.043" stroke-width="1.2" stroke="#f00" stroke-miterlimit="10" fill="none"/><path d="M175.973 200.88l-26.996 6.593" stroke-width="1.2" stroke="#000" stroke-miterlimit="10" fill="none"/><path d="M191.184 214.46h9v13h-9zm0 0" fill="#fff"/><use xlink:href="#c" x="191.184" y="224.362" fill="#f00"/><path d="M148.977 207.473l-19.21-20.082M151.78 200.945l-15.366-16.066" stroke-width="1.2" stroke="#000" stroke-miterlimit="10" fill="none"/></g></svg>
